img/icon-3.svg

<svg width="70" height="70" viewBox="0 0 70 70" fill="none" xmlns="http://www.w3.org/2000/svg">
<path fill-rule="evenodd" clip-rule="evenodd" d="M41.2654 48.9327C40.8361 49.7315 40.2022 50.363 39.4672 50.8227C38.3822 51.4955 37.1004 51.8315 35.7214 51.9668V53.1918C35.7214 53.8358 35.1988 54.3585 34.5548 54.3585C33.9108 54.3585 33.3881 53.8358 33.3881 53.1918V52.0096C31.6902 51.8797 30.235 51.3283 29.1492 50.4097C27.8939 49.3582 27.1869 47.8119 27.1946 46.1444C27.1946 45.5432 27.6823 45.0555 28.2835 45.0555C28.8848 45.0555 29.3724 45.5432 29.3724 46.1444C29.3802 47.2255 29.7808 48.0834 30.5554 48.7476C31.1986 49.292 32.153 49.6817 33.3881 49.8062V41.5687C33.3658 41.5631 33.3434 41.5574 33.321 41.5518C33.286 41.543 33.2508 41.5342 33.2157 41.5254C33.1074 41.4984 32.9984 41.4711 32.8903 41.4427C31.6809 41.1192 30.4745 40.7466 29.4292 40.0637C28.8342 39.6733 28.2921 39.1685 27.8939 38.5191C27.4373 37.7771 27.1923 36.8663 27.1946 35.8451C27.1954 34.5625 27.6496 33.0863 28.7976 31.9079C29.8126 30.8611 31.3565 30.1268 33.3881 29.9798V28.8513C33.3881 28.2073 33.9108 27.6846 34.5548 27.6846C35.1988 27.6846 35.7214 28.2073 35.7214 28.8513V30.0436C36.85 30.1727 37.8533 30.4395 38.7089 30.8564C39.9331 31.4498 40.8672 32.3583 41.393 33.4651C41.7445 34.2008 41.9149 35.0128 41.9149 35.8451C41.9149 36.4463 41.4272 36.9339 40.826 36.9339C40.2248 36.9339 39.7371 36.4463 39.7371 35.8451C39.7371 35.3029 39.6305 34.8269 39.4291 34.4038C39.2261 33.9807 38.9274 33.6051 38.4989 33.2714C37.8821 32.7899 36.9635 32.4065 35.723 32.2315V39.9105L35.8256 39.9375C35.9625 39.9735 36.0994 40.0094 36.2363 40.0474C37.4598 40.3935 38.6832 40.8213 39.7301 41.5897C40.3251 42.0284 40.8579 42.5899 41.2421 43.2899C41.6831 44.0895 41.9172 45.0516 41.9156 46.1444C41.9164 47.1921 41.6971 48.1363 41.2654 48.9327ZM29.8624 37.5437C30.1611 37.9505 30.6223 38.2943 31.2578 38.5945C31.8543 38.8807 32.5901 39.1071 33.3896 39.3194V32.1669C32.762 32.2253 32.2292 32.3489 31.7859 32.5177C31.1652 32.7549 30.7071 33.0723 30.3555 33.4308C29.6579 34.1409 29.3732 35.0673 29.374 35.8451C29.3794 36.6446 29.5661 37.1346 29.8624 37.5437ZM39.2175 44.1463C38.9002 43.6687 38.4374 43.2853 37.809 42.9516C37.2241 42.6374 36.5046 42.3908 35.723 42.1692V49.7704C36.395 49.6903 37.0094 49.5596 37.522 49.3636C38.4102 49.0214 38.9935 48.5539 39.3498 47.8991C39.5878 47.4573 39.7371 46.8981 39.7379 46.1444C39.7348 45.2305 39.531 44.6269 39.2175 44.1463Z" fill="#0C8543"/>
<path d="M17.1543 34.5344C16.5632 34.2778 15.8764 34.5492 15.6198 35.1403C15.3055 35.8652 15.0318 36.6064 14.8062 37.3617C14.6219 37.9792 14.9727 38.6294 15.5902 38.8138C16.2078 38.9981 16.858 38.6473 17.0423 38.0298C17.2399 37.3663 17.4802 36.7122 17.7602 36.0682C18.0169 35.4779 17.7454 34.7911 17.1543 34.5344Z" fill="#0C8543"/>
<path d="M17.8372 31.1893C19.8509 28.3061 22.4883 25.8428 25.3762 24.0174C25.9207 23.6728 26.6409 23.8354 26.9862 24.3814C27.33 24.9258 27.1667 25.6461 26.6222 25.9898C23.9941 27.6488 21.5706 29.9161 19.7513 32.5247C19.3819 33.0536 18.6554 33.1827 18.1266 32.8141C17.5977 32.4446 17.4686 31.7182 17.8372 31.1893Z" fill="#0C8543"/>
<path fill-rule="evenodd" clip-rule="evenodd" d="M62.5556 43.0822C62.5556 46.3131 61.9598 49.8948 60.9953 52.1464C62.897 53.7036 64.1111 56.0649 64.1111 58.7078C64.1111 63.3939 60.3039 67.1918 55.6077 67.1918C52.9228 67.1918 50.5319 65.9458 48.9732 64.006C44.7647 66.0267 39.8312 67.1918 34.5556 67.1918C29.2799 67.1918 24.3464 66.0267 20.1371 64.006C18.5784 65.9458 16.1876 67.1918 13.5019 67.1918C8.80644 67.1918 5 63.3939 5 58.7078C5 56.0633 6.21411 53.702 8.11578 52.1449C7.15211 49.8956 6.55478 46.3116 6.55556 43.0807C6.55867 30.7762 17.0999 19.2348 27.7702 15.5364C27.7595 15.5062 27.7484 15.476 27.7373 15.4459C27.7024 15.3512 27.6674 15.2564 27.645 15.1584L25.1351 4.11478C24.838 2.81122 25.3817 2 26.3951 2C26.6798 2 27.0002 2.063 27.3494 2.19756L31.6529 3.85345C32.4509 4.16067 33.504 4.31389 34.5563 4.31389C35.6087 4.31389 36.6618 4.16067 37.4598 3.85345L41.7632 2.19756C42.1132 2.063 42.4337 2 42.7176 2C43.731 1.99922 44.2747 2.81122 43.9776 4.11478L41.4677 15.1584C41.4443 15.2607 41.4076 15.3596 41.371 15.4586C41.3614 15.4845 41.3518 15.5105 41.3424 15.5364C52.012 19.2348 62.5556 30.7762 62.5556 43.0822ZM31.4164 14.2111L31.5316 14.3029H37.5796L37.6947 14.2111L39.2588 7.327L38.8559 7.48178C37.3073 8.07756 35.6623 8.202 34.5556 8.202C33.4488 8.202 31.8038 8.07756 30.2576 7.48256L29.8523 7.327L31.4164 14.2111ZM13.5011 63.3037C14.9073 63.3037 16.2202 62.6721 17.1053 61.5708C17.313 61.3126 17.551 61.0893 17.8053 60.898C16.8269 60.2182 15.8516 59.4404 14.9019 58.5732C13.4638 57.2541 12.2263 55.8611 11.223 54.4627C11.0363 54.7139 10.8279 54.9503 10.5782 55.1557C9.50411 56.0346 8.88811 57.3303 8.88811 58.7086C8.88811 61.2426 10.957 63.3037 13.5011 63.3037ZM21.3038 60.3014C21.478 60.3559 21.6507 60.4197 21.8194 60.5006C25.6399 62.3338 30.0437 63.3029 34.554 63.3029C35.4656 63.3029 36.3693 63.2531 37.2677 63.1746L37.0452 61.5809C37.0017 61.262 37.2241 60.9672 37.543 60.9221C37.8619 60.8786 38.1567 61.1002 38.2018 61.4199L38.4297 63.0524C39.2938 62.9443 40.1501 62.8043 40.9917 62.6254L40.5748 60.3497C40.5172 60.0331 40.7272 59.729 41.0446 59.6707C41.3611 59.6131 41.6652 59.8231 41.7228 60.1404L42.128 62.354C43.003 62.1308 43.8609 61.8718 44.6986 61.5716L43.8733 59.3308C43.7621 59.0282 43.9169 58.6938 44.2194 58.5818C44.522 58.4706 44.8564 58.6253 44.9684 58.9279L45.7874 61.1508C45.8793 61.1164 45.9718 61.0795 46.0649 61.0424L46.0954 61.0302C46.4314 60.8887 46.7659 60.7417 47.0941 60.5869C47.4192 60.429 47.7474 60.2594 48.0811 60.072L46.2557 57.0744C46.0877 56.7999 46.1748 56.4413 46.4501 56.2733C46.7254 56.1053 47.084 56.1924 47.252 56.4678L49.0798 59.4684C49.8272 58.9909 50.5832 58.4426 51.3322 57.832L48.6917 54.297C48.4988 54.0396 48.5517 53.674 48.8091 53.4811C49.0673 53.2882 49.4329 53.3411 49.6258 53.5986L52.2212 57.0737C52.2578 57.0408 52.2947 57.0091 52.3316 56.9774C52.3794 56.9364 52.4271 56.8954 52.474 56.852C55.0967 54.4572 56.9594 51.7723 57.7839 49.579C58.3167 47.8103 58.6667 45.3253 58.6667 43.0822C58.6667 37.2178 55.6909 30.9434 50.5031 25.8669C45.663 21.1326 39.5528 18.1918 34.5556 18.1918C29.5583 18.1918 23.4489 21.1326 18.6096 25.8661C13.4218 30.9427 10.446 37.217 10.4444 43.0814C10.4437 45.8029 10.957 48.9008 11.6904 50.6142C11.7321 50.7125 11.7624 50.8127 11.7928 50.9129C11.8017 50.9419 11.8105 50.971 11.8196 51C12.805 52.8744 14.3987 54.9527 16.4784 56.8512C18.0667 58.3072 19.7319 59.4677 21.3038 60.3014ZM52.0042 61.57C52.8893 62.6713 54.2022 63.3029 55.6077 63.3029C58.1526 63.3029 60.2222 61.2418 60.2222 58.7078C60.2222 57.3296 59.6062 56.0353 58.5321 55.1549C58.2443 54.9192 58.0071 54.6447 57.8033 54.3499C56.7868 55.7857 55.5252 57.2176 54.049 58.5717C53.1242 59.4163 52.1761 60.1747 51.2233 60.8412C51.5096 61.045 51.7756 61.2853 52.0042 61.57Z" fill="#0C8543"/>
</svg>

<svg width="70" height="70" fill="none" xmlns="http://www.w3.org/2000/svg"><path fill-rule="evenodd" clip-rule="evenodd" d="M41.265 48.933a5.068 5.068 0 0 1-1.798 1.89c-1.085.672-2.367 1.008-3.746 1.144v1.225a1.167 1.167 0 0 1-2.333 0V52.01c-1.698-.13-3.153-.682-4.239-1.6-1.255-1.052-1.962-2.598-1.954-4.266a1.09 1.09 0 0 1 2.177 0c.008 1.081.409 1.94 1.183 2.604.644.544 1.598.934 2.833 1.058V41.57l-.067-.017-.105-.027a26.722 26.722 0 0 1-.326-.082c-1.21-.324-2.416-.696-3.46-1.38-.596-.39-1.138-.895-1.536-1.544-.457-.742-.702-1.653-.7-2.674.001-1.282.456-2.759 1.604-3.937 1.015-1.047 2.559-1.781 4.59-1.928V28.85a1.167 1.167 0 0 1 2.333 0v1.193c1.129.129 2.132.395 2.988.812 1.224.594 2.158 1.502 2.684 2.61.352.735.522 1.547.522 2.38a1.089 1.089 0 0 1-2.178 0 3.3 3.3 0 0 0-.308-1.442 3.138 3.138 0 0 0-.93-1.133c-.617-.481-1.535-.864-2.776-1.04v7.68l.103.026c.136.037.273.072.41.11 1.224.347 2.447.774 3.494 1.543.595.438 1.128 1 1.512 1.7.441.8.675 1.762.674 2.854 0 1.048-.219 1.992-.65 2.789Zm-11.403-11.39c.3.407.76.751 1.396 1.051.596.287 1.332.513 2.132.725v-7.152a6.098 6.098 0 0 0-1.604.35 3.913 3.913 0 0 0-1.43.914 3.482 3.482 0 0 0-.982 2.414c.005.8.192 1.29.488 1.699Zm9.356 6.603c-.318-.477-.78-.86-1.409-1.194-.585-.315-1.304-.561-2.086-.783v7.601c.672-.08 1.286-.21 1.799-.406.888-.343 1.471-.81 1.828-1.465.238-.442.387-1 .388-1.755-.003-.913-.207-1.517-.52-1.998Z" fill="#0C8543"/><path d="M17.154 34.534a1.166 1.166 0 0 0-1.534.606 19.918 19.918 0 0 0-.814 2.222 1.167 1.167 0 0 0 2.236.668c.198-.664.438-1.318.718-1.962a1.166 1.166 0 0 0-.606-1.534ZM17.837 31.19c2.014-2.884 4.651-5.347 7.54-7.173a1.166 1.166 0 1 1 1.245 1.973c-2.628 1.659-5.051 3.926-6.87 6.535a1.167 1.167 0 1 1-1.915-1.336Z" fill="#0C8543"/><path fill-rule="evenodd" clip-rule="evenodd" d="M62.556 43.082c0 3.231-.596 6.813-1.56 9.064a8.461 8.461 0 0 1 3.115 6.562c0 4.686-3.807 8.484-8.503 8.484a8.491 8.491 0 0 1-6.635-3.186c-4.208 2.02-9.142 3.186-14.417 3.186-5.276 0-10.21-1.165-14.419-3.186a8.491 8.491 0 0 1-6.635 3.186C8.806 67.192 5 63.394 5 58.708a8.462 8.462 0 0 1 3.116-6.563c-.964-2.25-1.561-5.833-1.56-9.064C6.559 30.776 17.1 19.235 27.77 15.536l-.033-.09c-.035-.095-.07-.19-.092-.288l-2.51-11.043C24.838 2.81 25.382 2 26.395 2c.285 0 .605.063.954.198l4.304 1.655c.798.308 1.851.46 2.903.46 1.053 0 2.106-.152 2.904-.46l4.303-1.655c.35-.135.67-.198.955-.198 1.013 0 1.557.811 1.26 2.115l-2.51 11.043c-.024.103-.06.202-.097.3a12.2 12.2 0 0 0-.029.078c10.67 3.699 21.214 15.24 21.214 27.546Zm-31.14-28.87.116.09h6.048l.115-.09 1.564-6.885-.403.155c-1.549.596-3.194.72-4.3.72-1.107 0-2.752-.124-4.298-.72l-.406-.155 1.564 6.884ZM13.501 63.303c1.406 0 2.72-.632 3.604-1.733.208-.258.446-.482.7-.673a28.101 28.101 0 0 1-2.903-2.325 26.96 26.96 0 0 1-3.679-4.11 3.877 3.877 0 0 1-.645.693 4.578 4.578 0 0 0-1.69 3.553c0 2.534 2.069 4.595 4.613 4.595Zm7.803-3.003c.174.055.347.119.515.2 3.82 1.833 8.225 2.802 12.735 2.802.912 0 1.815-.05 2.714-.128l-.223-1.594a.585.585 0 0 1 1.157-.161l.228 1.632c.864-.108 1.72-.248 2.562-.427l-.417-2.275a.584.584 0 0 1 1.148-.21l.405 2.214a28.489 28.489 0 0 0 2.57-.782l-.825-2.241a.584.584 0 0 1 1.095-.403l.82 2.223.277-.109.03-.012c.336-.141.67-.288 1-.443.324-.158.652-.328.986-.515l-1.825-2.998a.582.582 0 1 1 .996-.606l1.828 3a24.214 24.214 0 0 0 2.252-1.636l-2.64-3.535a.583.583 0 0 1 .934-.698l2.595 3.475.11-.097a5.01 5.01 0 0 0 .143-.125c2.623-2.395 4.485-5.08 5.31-7.273.533-1.769.883-4.254.883-6.497 0-5.864-2.976-12.139-8.164-17.215-4.84-4.734-10.95-7.675-15.947-7.675-4.998 0-11.107 2.94-15.946 7.674-5.188 5.077-8.164 11.351-8.166 17.215 0 2.722.513 5.82 1.246 7.533.042.099.072.199.103.299l.027.087c.985 1.874 2.579 3.953 4.658 5.851 1.589 1.456 3.254 2.617 4.826 3.45Zm30.7 1.269a4.604 4.604 0 0 0 3.604 1.733c2.545 0 4.614-2.061 4.614-4.595a4.58 4.58 0 0 0-1.69-3.553 3.875 3.875 0 0 1-.729-.805 26.792 26.792 0 0 1-3.754 4.222 28.016 28.016 0 0 1-2.826 2.27c.287.203.553.443.781.728Z" fill="#0C8543"/></svg>
